!!!!SEGMENT: pl-sa--446-a-viii-86--001-001_anonim--te-amare-jesu.krn
!!!cenid: 17xx:701
!!!COM: Anonim
!!!COM-rismid: pe30004985
!!!CDT:
!!!CNT:
!!!OTL: Te amare Jesu
!!!OMV: 001
!!!PDT:
!!!AGN: Sacred
!!!SMS-siglum: PL-SA
!!!SMS-shelfmark: 446/A VIII 86
!!!SMS-shelfwork: 001-001 W
!!!SMS-variant: Pro Organo PL-SA 446/A VIII 86: 0014
!!!SMS-altvar: Pro Organo PL-SA 446/A VIII 86: 0017-0018
!!!NIFC-rismid: 1001041303
!!!URL-scan: http://bc.bdsandomierz.pl/dlibra/publication/1740/edition/1708/content
!!!ONB-nifc:
**kern	**fba	**kern	**kern	**kern	**text
*	*	*group1	*group1	*	*
*part4	*	*part3	*part2	*part1	*part1
*staff4	*	*staff3	*staff2	*staff1	*staff1
*Iorgan	*	*Ivioln	*Ivioln	*Ivox	*
*I"Pro Organo	*	*I"Violino Secundo	*I"Violino Primo	*I"Canto Solo	*
*>[A,B,A]	*>[A,B,A]	*>[A,B,A]	*>[A,B,A]	*>[A,B,A]	*>[A,B,A]
*>A	*>A	*>A	*>A	*>A	*>A
*clefF4	*	*clefG2	*clefG2	*clefC1	*
*k[f#]	*	*k[f#]	*k[f#]	*k[f#]	*
*b:	*	*b:	*b:	*b:	*
*M3/8	*	*M3/8	*M3/8	*M3/8	*
=1	=1	=1	=1	=1	=1
!	!	!LO:TX:b:i:t=Te amare	!LO:TX:b:i:t=Te amare	!LO:N:vis=00	!
!	!	!	!LO:TX:a:t=1 Concerto	!LO:TX:a:t=1 Concerto	!
!	!	!LO:TX:a:t=P:problem:znaki ff# f#	!LO:TX:a:t=P:problem:znaki ff# f#	!	!
4G\	.	4b/	8dd\L	1.r	.
.	.	.	16cc\L	.	.
.	.	.	16b\	.	.
8r	.	8r	16a/	.	.
.	.	.	16g/JJ	.	.
=2	=2	=2	=2	=2	=2
!LO:TX:b:t=VV	!	!	!	!	!
8G\L	.	8b/L	8dd\L	.	.
!LO:TX:t=P:problem:mixed beam	!	!	!	!	!
8GG/J	.	8b/J	8gg\J	.	.
8r	.	8r	8r	.	.
=3	=3	=3	=3	=3	=3
8A\L	.	4a/	8cc\L	.	.
8F#\	6	.	16dd\L	.	.
.	.	.	16cc\	.	.
8G\J	.	8g/	16b\	.	.
.	.	.	16cc\JJ	.	.
=4	=4	=4	=4	=4	=4
4D/	.	4f#/	8a/L	.	.
.	.	.	8d/J	.	.
8r	.	8r	8r	.	.
=5	=5	=5	=5	=5	=5
!	!	!	!	!LO:N:vis=00	!
4D/	.	4f#/	8a/L	1.r	.
.	.	.	16dd\L	.	.
.	.	.	16cc#X\J	.	.
8D/	.	8f#/	8dd\J	.	.
=6	=6	=6	=6	=6	=6
4C#X/	.	4e/	8a/L	.	.
.	.	.	16ee\L	.	.
.	.	.	16dd\J	.	.
8C#/	.	8e/	8ee\J	.	.
=7	=7	=7	=7	=7	=7
8E\L	.	4ee\	8ff#\L	.	.
8C#X/	.	.	16aa\L	.	.
.	.	.	16gg\	.	.
8E\J	.	8ee\	16ff#\	.	.
.	.	.	16gg\JJ	.	.
=8	=8	=8	=8	=8	=8
!	!	!LO:SIC:v:s=4.cc#\	!	!	!
4AA/	4	4.ccn\	4.ee\	.	.
.	3	.	.	.	.
8r	.	.	.	.	.
=9	=9	=9	=9	=9	=9
!	!	!	!LO:TX:t=P:problem:mixed beam	!LO:N:vis=00	!
4AA/	8 6	4a/	8aa\L	1.r	.
.	.	.	16a/L	.	.
.	.	.	16g#X/J	.	.
8r	.	8r	8a/J	.	.
!	!	!	!LO:LB:g=original	!	!
=10	=10	=10	=10	=10	=10
!	!	!	!LO:TX:t=P:problem:mixed beam	!	!
4AA/	7 5	4g/	8gg\L	.	.
.	.	.	16a/L	.	.
.	.	.	16g#X/J	.	.
8r	.	8r	8a/J	.	.
=11	=11	=11	=11	=11	=11
!	!	!	!LO:TX:t=P:problem:mixed beam	!	!
4AA/	6 4	4f#/	8ff#\L	.	.
.	.	.	16a/L	.	.
.	.	.	16g#X/J	.	.
8r	.	8r	8a/J	.	.
=12	=12	=12	=12	=12	=12
4AA/	4	4e/	4ee\	.	.
.	3	.	.	.	.
8r	.	8r	8r	.	.
=13	=13	=13	=13	=13	=13
!	!	!	!LO:TX:t=P:problem:mixed beam	!LO:N:vis=00	!
4AA/	8 6	4a/	8aa\L	1.r	.
.	.	.	16a/L	.	.
.	.	.	16g#X/J	.	.
8r	.	8r	8a/J	.	.
!LO:LB:g=original	!	!	!	!	!
=14	=14	=14	=14	=14	=14
!	!	!	!LO:TX:t=P:problem:mixed beam	!	!
4AA/	7 5	4g/	8gg\L	.	.
.	.	.	16a/L	.	.
.	.	.	16g#X/J	.	.
8r	.	8r	8a/J	.	.
!	!	!LO:LB:g=original	!	!	!
=15	=15	=15	=15	=15	=15
!	!	!	!LO:TX:t=P:problem:mixed beam	!	!
4AA/	6 4	4f#/	8ff#\L	.	.
.	.	.	16a/L	.	.
.	.	.	16g#X/J	.	.
8r	.	8r	8a/J	.	.
=16	=16	=16	=16	=16	=16
4AA/	5 3	4e/	4ee\	.	.
8r	.	8r	8r	.	.
=17	=17	=17	=17	=17	=17
!	!	!	!	!LO:N:vis=00	!
4D/	.	4dd\	8a/L	1.r	.
.	.	.	16dd\L	.	.
.	.	.	16cc#X\J	.	.
8r	.	8dd\	8dd\J	.	.
=18	=18	=18	=18	=18	=18
4.AA/	4 3	4cc#X\	8a/L	.	.
.	.	.	16ee\L	.	.
.	.	.	16dd\J	.	.
.	.	8cc#\	8ee\J	.	.
=19	=19	=19	=19	=19	=19
4.AA/	.	4dd\	8a/L	.	.
.	.	.	16ff#\L	.	.
.	.	.	16ee\J	.	.
.	.	8dd\	8ff#\J	.	.
=20	=20	=20	=20	=20	=20
!LO:TX:t=P:problem:brak taktu w źródle	!	!	!	!	!
4.ryy	.	4ee\	8a/L	.	.
.	.	.	16gg\L	.	.
.	.	.	16ff#\J	.	.
.	.	8ee\	8gg\J	.	.
!	!	!	!LO:LB:g=original	!	!
=21	=21	=21	=21	=21	=21
!	!	!	!	!LO:N:vis=00	!
4.D/	.	4ff#\	8.aa\L	1.r	.
.	.	.	16gg\L	.	.
.	.	8r	16ff#\	.	.
.	.	.	16ee\JJ	.	.
=22	=22	=22	=22	=22	=22
!LO:TX:t=P:problem:mixed beam	!	!	!	!	!
8D\L	.	16f#/LL	16dd\LL	.	.
.	.	16g/JJ	16ee\JJ	.	.
8A\	.	8a/L	4cc#X\	.	.
8AA/J	.	8a/J	.	.	.
=23	=23	=23	=23	=23	=23
4.D/	.	4.d/	4.dd\	.	.
=24	=24	=24	=24	=24	=24
4D/	.	4dd\	8a/L	.	.
.	.	.	16dd\L	.	.
.	.	.	16cc#X\J	.	.
8r	.	8dd\	8dd\J	.	.
=25	=25	=25	=25	=25	=25
!	!	!	!	!LO:N:vis=00	!
4AA/	#3	4cc#X\	8a/L	1.r	.
.	.	.	16ee\L	.	.
.	.	.	16dd\J	.	.
8r	.	8cc#\	8ee\J	.	.
=26	=26	=26	=26	=26	=26
4D/	.	4dd\	8a/L	.	.
.	.	.	16ff#\L	.	.
.	.	.	16ee\J	.	.
8r	.	8dd\	8ff#\J	.	.
=27	=27	=27	=27	=27	=27
4AA/	7 #3	4ee\	8a/L	.	.
.	.	.	16gg\L	.	.
.	.	.	16ff#\J	.	.
8r	.	8ee\	8gg\J	.	.
=28	=28	=28	=28	=28	=28
4D/	.	4ff#\	8.aa\L	.	.
.	.	.	16gg\L	.	.
8r	.	8r	16ff#\	.	.
!LO:TX:a:t=P:problem:dwa wykreślone takty	!	!	!	!	!
.	.	.	16ee\JJ	.	.
!	!	!LO:LB:g=original	!	!	!
=29	=29	=29	=29	=29	=29
!LO:TX:t=P:problem:mixed beam	!	!	!	!	!
8D/L	.	16f#/LL	16dd\LL	2.r	.
.	.	16g/JJ	16ee\JJ	.	.
8A\	.	8a/L	4cc#X\	.	.
8AA/J	.	8a/J	.	.	.
!LO:LB:g=original	!	!	!	!	!
=30	=30	=30	=30	=30	=30
4D/	.	4.d/	4.dd\	.	.
8r	.	.	.	.	.
=31	=31	=31	=31	=31	=31
!LO:TX:b:t=Canto	!	!	!	!	!
!LO:N:vis=00	!	!LO:N:vis=00	!LO:N:vis=00	!	!
1.r	.	1.r	1.r	8dd\	Te
!	!	!	!	!LO:SIC:v:s=(16cc\LL:t=poprawione innym tuszem	!
.	.	.	.	(16dd\LL	a-
!	!	!	!	!LO:SIC:v:s=(16b\JJ:t=poprawione innym tuszem	!
.	.	.	.	16cc\JJ)	.
.	.	.	.	(16a\LL	.
.	.	.	.	16g\JJ)	.
=32	=32	=32	=32	=32	=32
.	.	.	.	8dd\	-ma-
.	.	.	.	8gg\	-re
.	.	.	.	8r	.
=33	=33	=33	=33	=33	=33
.	.	.	.	8cc\	Je-
.	.	.	.	(16dd\LL	-su
.	.	.	.	16cc\JJ)	.
.	.	.	.	(16b\LL	mi
.	.	.	.	16cc\JJ)	.
=34	=34	=34	=34	=34	=34
.	.	.	.	8a\	chare
.	.	.	.	8d/	.
.	.	.	.	8r	.
=35	=35	=35	=35	=35	=35
!LO:N:vis=00	!	!LO:N:vis=00	!LO:N:vis=00	!	!
1.r	.	1.r	1.r	8a\	te
.	.	.	.	16dd\LL	ſo-
.	.	.	.	16cc#X\JJ	.
.	.	.	.	8dd\	-lum
=36	=36	=36	=36	=36	=36
.	.	.	.	8a\	ſpes
.	.	.	.	16ee\LL	me-
.	.	.	.	16dd\JJ	.
.	.	.	.	8ee\	-a
!	!	!	!	!LO:LB:g=original	!
=37	=37	=37	=37	=37	=37
.	.	.	.	8gg\	de-
.	.	.	.	16aa\LL	-si-
.	.	.	.	16gg\JJ	.
.	.	.	.	16ff#\LL	-de-
.	.	.	.	16gg\JJ	.
=38	=38	=38	=38	=38	=38
.	.	.	.	4.ee\	-ro
!	!	!	!LO:LB:g=original	!	!
=39	=39	=39	=39	=39	=39
!LO:N:vis=00	!	!LO:N:vis=00	!LO:N:vis=00	!	!
1.r	.	1.r	1.r	8aa\	o-
.	.	.	.	8a\	-mne
.	.	.	.	8a\	quod
=40	=40	=40	=40	=40	=40
!	!	!	!	!LO:SIC:v:s=8gg\	!
.	.	.	.	8aa\	mun-
.	.	.	.	8a\	-d(us)
.	.	.	.	8a\	dat
=41	=41	=41	=41	=41	=41
.	.	.	.	8ff#\	des-
.	.	.	.	8a\	-pi-
.	.	.	.	8a\	-ti-
=42	=42	=42	=42	=42	=42
.	.	.	.	4ee\	-o
.	.	.	.	8r	.
=43	=43	=43	=43	=43	=43
!LO:N:vis=00	!	!LO:N:vis=00	!LO:N:vis=00	!	!
1.r	.	1.r	1.r	8aa\	te
.	.	.	.	8a\	so-
.	.	.	.	8a\	-lu(m)
=44	=44	=44	=44	=44	=44
.	.	.	.	8gg\	Je-
.	.	.	.	8a\	-su
.	.	.	.	8a\	mi
=45	=45	=45	=45	=45	=45
.	.	.	.	8ff#\	de-
.	.	.	.	8a\	-si-
.	.	.	.	8a\	-de-
=46	=46	=46	=46	=46	=46
.	.	.	.	4ee\	-ro
.	.	.	.	8r	.
!	!	!	!	!LO:LB:g=original	!
=47	=47	=47	=47	=47	=47
!LO:N:vis=00	!	!LO:N:vis=00	!LO:N:vis=00	!LO:SIC:v:s=8a\	!
1.r	.	1.r	1.r	8b\	te
.	.	.	.	16dd\LL	a-
.	.	.	.	16cc#X\JJ	.
.	.	.	.	8dd\	.
=48	=48	=48	=48	=48	=48
.	.	.	.	8a\	.
.	.	.	.	16ee\LL	.
.	.	.	.	16dd\JJ	.
.	.	.	.	8ee\	.
=49	=49	=49	=49	=49	=49
.	.	.	.	8a\L	.
.	.	.	.	16ff#\L	.
.	.	.	.	16ee\J	.
.	.	.	.	8ff#\J	.
=50	=50	=50	=50	=50	=50
.	.	.	.	8a\L	.
.	.	.	.	16gg\L	.
.	.	.	.	16ff#\J	.
.	.	.	.	8gg\J	.
=51	=51	=51	=51	=51	=51
!LO:N:vis=00	!	!LO:N:vis=00	!LO:N:vis=00	!	!
1.r	.	1.r	1.r	8aa\L	.
.	.	.	.	16gg\L	.
.	.	.	.	16ff#\J	.
.	.	.	.	8ee\J	.
=52	=52	=52	=52	=52	=52
.	.	.	.	16dd\LL	.
.	.	.	.	16ee\JJ	.
.	.	.	.	4cc#X\	.
=53	=53	=53	=53	=53	=53
.	.	.	.	4.dd\	-mo
=54	=54	=54	=54	=54	=54
.	.	.	.	8a\	te
.	.	.	.	16dd\LL	a-
.	.	.	.	16cc#X\JJ	.
.	.	.	.	8dd\	.
=55	=55	=55	=55	=55	=55
!LO:N:vis=00	!	!LO:N:vis=00	!LO:N:vis=00	!	!
1.r	.	1.r	1.r	8a\L	.
.	.	.	.	16ee\L	.
.	.	.	.	16dd\J	.
.	.	.	.	8ee\J	.
=56	=56	=56	=56	=56	=56
.	.	.	.	8a\L	.
.	.	.	.	16ff#\L	.
.	.	.	.	16ee\J	.
.	.	.	.	8ff#\J	.
!	!	!	!	!LO:LB:g=original	!
=57	=57	=57	=57	=57	=57
.	.	.	.	8a\L	.
.	.	.	.	16gg\L	.
.	.	.	.	16ff#\J	.
.	.	.	.	8gg\J	.
=58	=58	=58	=58	=58	=58
.	.	.	.	8aa\L	.
.	.	.	.	16gg\L	.
.	.	.	.	16ff#\J	.
.	.	.	.	8ee\J	.
=59	=59	=59	=59	=59	=59
!LO:N:vis=0	!	!LO:N:vis=0	!LO:N:vis=0	!	!
2.r	.	2.r	2.r	16dd\LL	.
.	.	.	.	16ee\JJ	.
.	.	.	.	4cc#X\	.
=60	=60	=60	=60	=60	=60
.	.	.	.	4.dd\	-mo
=61	=61	=61	=61	=61	=61
!LO:TX:b:t=VV	!	!	!	!LO:N:vis=00	!
4G\	.	4b/	8dd\L	1.r	.
.	.	.	16cc\L	.	.
.	.	.	16b\	.	.
8r	.	8r	16a/	.	.
.	.	.	16g/JJ	.	.
=62	=62	=62	=62	=62	=62
!LO:TX:t=P:problem:mixed beam	!	!	!	!	!
8G\L	.	8b/L	8dd\L	.	.
8GG/J	.	8b/J	8gg\J	.	.
8r	.	8r	8r	.	.
=63	=63	=63	=63	=63	=63
8A\L	.	4a/	8cc\L	.	.
8F#\	6	.	16dd\L	.	.
.	.	.	16cc\	.	.
8G\J	.	8g/	16b\	.	.
.	.	.	16cc\JJ	.	.
=64	=64	=64	=64	=64	=64
4D/	.	4f#/	8a/L	.	.
.	.	.	8d/J	.	.
8r	.	8r	8r	.	.
=65	=65	=65	=65	=65	=65
!	!	!	!	!LO:N:vis=00	!
4D/	.	4f#/	8a/L	1.r	.
.	.	.	16dd\L	.	.
.	.	.	16cc#X\J	.	.
8D/	.	8f#/	8dd\J	.	.
=66	=66	=66	=66	=66	=66
4C#X/	.	4e/	8a/L	.	.
.	.	.	16ee\L	.	.
.	.	.	16dd\J	.	.
8C#/	6	8e/	8ee\J	.	.
=67	=67	=67	=67	=67	=67
8E\L	.	4ee\	8ff#\L	.	.
8C#X/	.	.	16aa\L	.	.
.	.	.	16gg\	.	.
8D\J	.	8dd\	16ff#\	.	.
.	.	.	16gg\JJ	.	.
=68	=68	=68	=68	=68	=68
!	!	!LO:SIC:v:s=4.cc#\	!	!LO:TX:t=P:problem:zamazane 22 takty pauz	!
4.AA/	5	4.cc\	4.ee\	.	.
=69	=69	=69	=69	=69	=69
!	!	!LO:TX:b:i:t=Canto	!LO:TX:b:i:t=Canto	!	!
4AA/	8 6	4f#/	4a/	8aa\	O-
.	.	.	.	8a\	-mne
8r	.	8r	8r	8a\	quod
=70	=70	=70	=70	=70	=70
4AA/	7 5	4e/	4g/	8gg\	mun-
.	.	.	.	8a\	-d(us)
8r	.	8r	8r	8a\	dat
!	!	!	!LO:LB:g=original	!	!
=71	=71	=71	=71	=71	=71
4AA/	6 4	4d/	4f#/	8ff#\	deſ-
.	.	.	.	8a\	-pi-
8r	.	8r	8r	8a\	-ti-
=72	=72	=72	=72	=72	=72
4AA/	.	4c#X/	4e/	4ee\	-o
8r	.	8r	8r	8r	.
!LO:LB:g=original	!	!LO:LB:g=original	!	!	!
=73	=73	=73	=73	=73	=73
4AA/	6 #3	4f#/	4a/	8aa\	te
.	.	.	.	8a\	ſo-
8r	.	8r	8r	8a\	-lu(m)
=74	=74	=74	=74	=74	=74
4AA/	8 6	4e/	4g/	8gg\	Je-
.	.	.	.	8a\	-ſu
8r	.	8r	8r	8a\	mi
=75	=75	=75	=75	=75	=75
4AA/	7 5	4d/	4f#/	8ff#\	de-
.	.	.	.	8a\	-ſi-
8r	.	8r	8r	8a\	-de-
!	!	!	!	!LO:LB:g=original	!
=76	=76	=76	=76	=76	=76
4AA/	7 3	4c#X/	4e/	4ee\	-ro
!	!	!	!LO:TX:a:t=P:problem:14 wykreślonych taktów	!	!
8r	.	8r	8r	8r	.
=77	=77	=77	=77	=77	=77
!	!	!	!LO:TX:a:t=14	!	!
!	!	!	!LO:N:vis=00	!	!
4D/	.	4dd\	1.r	8a\	te
.	.	.	.	16dd\LL	a-
.	.	.	.	16cc#X\JJ	.
8r	.	8dd\	.	8dd\	.
=78	=78	=78	=78	=78	=78
4AA/	#	4cc#X\	.	8a\L	.
.	.	.	.	16ee\L	.
.	.	.	.	16dd\J	.
8r	.	8cc#\	.	8ee\J	.
=79	=79	=79	=79	=79	=79
4D/	.	4dd\	.	8a\L	.
.	.	.	.	16ff#\L	.
.	.	.	.	16ee\J	.
8r	.	8dd\	.	8ff#\J	.
=80	=80	=80	=80	=80	=80
4AA/	7 6	4ee\	.	8a\L	.
.	.	.	.	16gg\L	.
.	.	.	.	16ff#\J	.
8r	.	8ee\	.	8gg\J	.
=81	=81	=81	=81	=81	=81
!	!	!	!LO:N:vis=00	!	!
4D/	.	4ff#\	1.r	8.aa\L	.
.	.	.	.	16gg\L	.
8r	.	8r	.	16ff#\	.
.	.	.	.	16ee\JJ	.
=82	=82	=82	=82	=82	=82
!LO:TX:t=P:problem:mixed beam	!	!	!	!	!
8D\L	.	16f#/LL	.	16dd\LL	.
.	.	16g/J	.	16ee\JJ	.
8A\	.	8a/	.	4cc#X\	.
8AA/J	4	8a/J	.	.	.
.	3	.	.	.	.
=83	=83	=83	=83	=83	=83
4.D/	.	4.d/	.	4.dd\	-mo
=84	=84	=84	=84	=84	=84
4D/	.	4dd\	.	8a\L	te
.	.	.	.	16dd\L	a-
.	.	.	.	16cc#X\J	.
8r	.	8dd\	.	8dd\J	.
=85	=85	=85	=85	=85	=85
!	!	!	!LO:N:vis=00	!	!
4AA/	.	4cc#X\	1.r	8a\L	.
.	.	.	.	16ee\L	.
.	.	.	.	16dd\J	.
8r	.	8cc#\	.	8ee\J	.
=86	=86	=86	=86	=86	=86
4D/	.	4dd\	.	8a\L	.
.	.	.	.	16ff#\L	.
.	.	.	.	16ee\J	.
8r	.	8dd\	.	8ff#\J	.
=87	=87	=87	=87	=87	=87
4AA/	#	4ee\	.	8a\L	.
.	.	.	.	16gg\L	.
.	.	.	.	16ff#\J	.
8r	.	8ee\	.	8gg\J	.
!	!	!	!	!LO:LB:g=original	!
=88	=88	=88	=88	=88	=88
4D/	.	4ff#\	.	8.aa\L	.
.	.	.	.	16gg\L	.
8r	.	8r	.	16ff#\	.
.	.	.	.	16ee\JJ	.
!LO:LB:g=original	!	!LO:LB:g=original	!	!	!
=89	=89	=89	=89	=89	=89
!LO:TX:t=P:problem:mixed beam	!	!	!LO:N:vis=0	!	!
8D\L	.	16f#/LL	2.r	16dd\LL	.
.	.	16g/J	.	16ee\JJ	.
8A\	.	8a/	.	4cc#X\	.
8AA/J	.	8a/J	.	.	.
=90	=90	=90	=90	=90	=90
!	!	!LO:TX:a:t=P:problem:52 wykreślone takty	!LO:TX:a:t=P:problem:15 wykreślonych taktów	!	!
4.D/	.	4.d/	.	4.dd\	-mo
=91	=91	=91	=91	=91	=91
!LO:N:vis=00	!	!LO:TX:t=P:problem:nadmiarowe takty pauzy w org	!LO:TX:t=P:problem:nadmiarowe takty pauzy w org	!LO:TX:t=P:problem:nadmiarowe takty pauzy w org	!
1.r	.	4.ryy	4.ryy	4.ryy	.
=92	=92	=92	=92	=92	=92
.	.	4.ryy	4.ryy	4.ryy	.
=93	=93	=93	=93	=93	=93
.	.	4.ryy	4.ryy	4.ryy	.
=94	=94	=94	=94	=94	=94
.	.	4.ryy	4.ryy	4.ryy	.
=95	=95	=95	=95	=95	=95
!LO:N:vis=00	!	!	!	!	!
1.r	.	4.ryy	4.ryy	4.ryy	.
=96	=96	=96	=96	=96	=96
.	.	4.ryy	4.ryy	4.ryy	.
=97	=97	=97	=97	=97	=97
.	.	4.ryy	4.ryy	4.ryy	.
=98	=98	=98	=98	=98	=98
.	.	4.ryy	4.ryy	4.ryy	.
=99	=99	=99	=99	=99	=99
!LO:N:vis=00	!	!	!	!	!
1.r	.	4.ryy	4.ryy	4.ryy	.
=100	=100	=100	=100	=100	=100
.	.	4.ryy	4.ryy	4.ryy	.
=101	=101	=101	=101	=101	=101
.	.	4.ryy	4.ryy	4.ryy	.
=102	=102	=102	=102	=102	=102
.	.	4.ryy	4.ryy	4.ryy	.
=103	=103	=103	=103	=103	=103
!LO:N:vis=0	!	!	!	!	!
2.r	.	4.ryy	4.ryy	4.ryy	.
=104	=104	=104	=104	=104	=104
.	.	4.ryy	4.ryy	4.ryy	.
=105	=105	=105	=105	=105	=105
!	!	!	!	!LO:TX:a:t=30	!
!	!	!	!	!LO:N:vis=00	!
4G\	.	4b/	8dd\L	1.r	.
.	.	.	16cc\L	.	.
.	.	.	16b\	.	.
8r	.	8r	16a/	.	.
.	.	.	16g/JJ	.	.
=106	=106	=106	=106	=106	=106
8G\L	.	8b/L	8dd\L	.	.
!LO:TX:t=P:problem:mixed beam	!	!	!	!	!
8GG/J	.	8b/J	8gg\J	.	.
8r	.	8r	8r	.	.
=107	=107	=107	=107	=107	=107
8A\L	.	4a/	8cc\L	.	.
8F#\	6	.	16dd\L	.	.
.	.	.	16cc\	.	.
8G\J	.	8g/	16b\	.	.
.	.	.	16cc\JJ	.	.
=108	=108	=108	=108	=108	=108
4D/	.	4f#/	8a/L	.	.
.	.	.	8d/J	.	.
8r	.	8r	8r	.	.
!	!	!	!LO:LB:g=original	!	!
=109	=109	=109	=109	=109	=109
!	!	!	!	!LO:N:vis=00	!
4D/	.	4f#/	8a/L	1.r	.
.	.	.	16dd\L	.	.
.	.	.	16cc#X\J	.	.
8D/	.	8f#/	8dd\J	.	.
=110	=110	=110	=110	=110	=110
4C#X/	.	4e/	8a/L	.	.
.	.	.	16ee\L	.	.
.	.	.	16dd\J	.	.
8C#/	.	8e/	8ee\J	.	.
=111	=111	=111	=111	=111	=111
8E\L	.	4ee\	8gg\L	.	.
8C#X/	.	.	16aa\L	.	.
.	.	.	16gg\	.	.
8D\J	.	8dd\	16ff#\	.	.
.	.	.	16gg\JJ	.	.
=112	=112	=112	=112	=112	=112
4.AA/	5	4.cc#X\	4.ee\	.	.
=113	=113	=113	=113	=113	=113
!	!	!	!LO:TX:t=P:problem:mixed beam	!LO:N:vis=00	!
4D/	8	4f#/	8.aa\L	1.r	.
.	6	.	16a/L	.	.
8r	.	8r	16g#X/	.	.
.	.	.	16a/JJ	.	.
=114	=114	=114	=114	=114	=114
!	!	!	!LO:TX:t=P:problem:mixed beam	!	!
!	!	!	!LO:N:vis=8	!	!
4AA/	4 5	4e/	8.gg\L	.	.
.	.	.	16a/L	.	.
8r	.	8r	16g#X/	.	.
.	.	.	16a/JJ	.	.
=115	=115	=115	=115	=115	=115
!	!	!	!LO:TX:t=P:problem:mixed beam	!	!
!	!	!	!LO:N:vis=8	!	!
4D/	6	4d/	8.ff#\L	.	.
.	.	.	16a/L	.	.
8r	.	8r	16g#X/	.	.
.	.	.	16a/JJ	.	.
!LO:LB:g=original	!	!	!	!	!
=116	=116	=116	=116	=116	=116
4AA/	.	4c#X/	4.ee\	.	.
8r	.	8r	.	.	.
!	!	!LO:LB:g=original	!	!	!
=117	=117	=117	=117	=117	=117
!	!	!	!LO:TX:t=P:problem:mixed beam	!	!
!	!	!	!LO:N:vis=8	!LO:N:vis=00	!
4.D/	5 #	4f#/	8.aa\L	1.r	.
.	.	.	16a/L	.	.
.	.	8r	16g#X/	.	.
.	.	.	16a/JJ	.	.
=118	=118	=118	=118	=118	=118
!	!	!	!LO:TX:t=P:problem:mixed beam	!	!
!	!	!	!LO:N:vis=8	!	!
4AA/	4 5	4e/	8.gg\L	.	.
.	.	.	16a/L	.	.
8r	.	8r	16g#X/	.	.
.	.	.	16a/JJ	.	.
=119	=119	=119	=119	=119	=119
!	!	!	!LO:TX:t=P:problem:mixed beam	!	!
!	!	!	!LO:N:vis=8	!	!
4D/	7 5	4d/	8.ff#\L	.	.
.	.	.	16a/L	.	.
8r	.	8r	16g#X/	.	.
.	.	.	16a/JJ	.	.
=120	=120	=120	=120	=120	=120
4.AA/	7 3	4c#X/	4.ee\	.	.
.	.	8r	.	.	.
=121	=121	=121	=121	=121	=121
!	!	!	!	!LO:N:vis=00	!
4D/	.	4dd\	8a/L	1.r	.
.	.	.	16dd\L	.	.
!	!	!	!LO:TX:t=P:problem:# above	!	!
.	.	.	16cc#X\J	.	.
8D/	.	8dd\	8dd\J	.	.
=122	=122	=122	=122	=122	=122
4AA/	.	4cc#X\	8a/L	.	.
.	.	.	16ee\L	.	.
.	.	.	16dd\J	.	.
8r	.	8cc#\	8ee\J	.	.
!	!	!	!LO:LB:g=original	!	!
=123	=123	=123	=123	=123	=123
4D/	.	4dd\	8a/L	.	.
.	.	.	16ff#\L	.	.
.	.	.	16ee\J	.	.
8r	.	8dd\	8ff#\J	.	.
=124	=124	=124	=124	=124	=124
4AA/	4 5	4ee\	8a/L	.	.
.	.	.	16gg\L	.	.
.	.	.	16ff#\J	.	.
8r	.	8ee\	8gg\J	.	.
=125	=125	=125	=125	=125	=125
!	!	!	!	!LO:N:vis=00	!
4.D/	.	4ff#\	8.aa\L	1.r	.
.	.	.	16gg\L	.	.
.	.	8r	16ff#\	.	.
.	.	.	16ee\JJ	.	.
=126	=126	=126	=126	=126	=126
!LO:TX:t=P:problem:mixed beam	!	!	!	!	!
8D\L	.	16f#/LL	16dd\LL	.	.
.	.	16g/J	16ee\JJ	.	.
8A\	.	8a/	4cc#X\	.	.
8AA/J	.	8a/J	.	.	.
=127	=127	=127	=127	=127	=127
4D/	.	4.d/	4.dd\	.	.
8r	.	.	.	.	.
=128	=128	=128	=128	=128	=128
4D/	.	4dd\	8a/L	.	.
.	.	.	16dd\L	.	.
.	.	.	16cc#X\J	.	.
8r	.	8dd\	8dd\J	.	.
=129	=129	=129	=129	=129	=129
!	!	!	!	!LO:N:vis=00	!
4AA/	7 3	4cc#X\	8a/L	1.r	.
.	.	.	16ee\L	.	.
.	.	.	16dd\J	.	.
8r	.	8cc#\	8ee\J	.	.
=130	=130	=130	=130	=130	=130
4D/	.	4dd\	8a/L	.	.
.	.	.	16ff#\L	.	.
.	.	.	16ee\J	.	.
8r	.	8dd\	8ff#\J	.	.
!	!	!LO:LB:g=original	!	!	!
=131	=131	=131	=131	=131	=131
4.AA/	4 5	4ee\	8a/L	.	.
.	.	.	16gg\L	.	.
.	.	.	16ff#\J	.	.
.	.	8ee\	8gg\J	.	.
!LO:LB:g=original	!	!	!	!	!
=132	=132	=132	=132	=132	=132
4D/	.	4ff#\	8.aa\L	.	.
.	.	.	16gg\L	.	.
8r	.	8r	16ff#\	.	.
.	.	.	16ee\JJ	.	.
=133	=133	=133	=133	=133	=133
!LO:TX:t=P:problem:mixed beam	!	!	!	!LO:N:vis=0	!
8D\L	.	16f#/LL	16dd\LL	2.r	.
.	.	16g/J	16ee\JJ	.	.
8A\	.	8a/	4cc#X\	.	.
8AA/J	.	8a/J	.	.	.
=134	=134	=134	=134	=134	=134
!LO:TX:a:t=Finis	!	!	!	!	!
!LO:TX:t=P:problem:po tym takcie przekreślonych 30 taktów	!	!	!	!LO:TX:t=P:problem:po tym takcie przekreślone pauzy	!
4.D/	.	4.d/	4.dd\	.	.
==135	==135	==135	==135	==135	==135
*>B	*>B	*>B	*>B	*>B	*>B
!LO:TX:b:t=de Canto	!	!LO:TX:b:i:t=Finis	!LO:TX:b:i:t=Finis	!LO:TX:b:i:t=Finis	!
!	!	!LO:TX:a:t=14	!LO:TX:a:t=28	!	!
!	!	!LO:N:vis=00	!LO:N:vis=00	!	!
4BB/	.	1.r	1.r	8ff#\	pro
.	.	.	.	8ff#\	cul-
8C#X/	.	.	.	8ff#\	-sit
=136	=136	=136	=136	=136	=136
4D\	.	.	.	8ff#\	mun-
.	.	.	.	8ff#\	-di
8E\	.	.	.	8ff#\	fal-
=137	=137	=137	=137	=137	=137
4F#\	.	.	.	8ff#\	-la-
.	.	.	.	16ee\	.
.	.	.	.	16dd\	-ces
!	!	!	!	!LO:SIC:v:s=16cc#\LL	!
8G#X\	6	.	.	16cc\LL	a-
.	.	.	.	16b\JJ	.
=138	=138	=138	=138	=138	=138
4A#X\	6	.	.	8a#X\	-mo-
.	.	.	.	8f#/	-res
8F#\	.	.	.	8r	.
=139	=139	=139	=139	=139	=139
!	!	!LO:N:vis=00	!LO:N:vis=00	!	!
4BB/	.	1.r	1.r	8ff#\	me-
.	.	.	.	8ff#\	-a
8C#X/	.	.	.	8ff#\	ſpes
=140	=140	=140	=140	=140	=140
4D\	.	.	.	8ff#\	ſo-
.	.	.	.	8ff#\	-luſ
8E\	.	.	.	8ff#\	in
!	!	!	!	!LO:LB:g=original	!
=141	=141	=141	=141	=141	=141
4F#\	.	.	.	8ff#\	Cae-
.	.	.	.	(16ee\LL	-li
.	.	.	.	16dd\JJ)	.
!	!	!	!	!LO:SIC:v:s=16cc#\LL	!
8G#X\	.	.	.	(16cc\LL	fa-
.	.	.	.	16b\JJ)	.
=142	=142	=142	=142	=142	=142
8A#X\L	6	.	.	8a#X\	-vo-
8A#\	.	.	.	8f#/	-res
8F#\J	.	.	.	8r	.
=143	=143	=143	=143	=143	=143
!	!	!LO:N:vis=00	!LO:N:vis=00	!	!
4.F#\	#	1.r	1.r	8cc#X\	Je-
.	.	.	.	(8dd\L	-ſum
.	.	.	.	8cc#\J)	.
=144	=144	=144	=144	=144	=144
4.BB/	-3	.	.	4.dd\	a-
=145	=145	=145	=145	=145	=145
4BB/	#	.	.	8dd#X\L	.
.	.	.	.	8ee\	.
8BB/	.	.	.	8dd#\J	.
=146	=146	=146	=146	=146	=146
4.E\	.	.	.	4.ee\	.
=147	=147	=147	=147	=147	=147
!	!	!LO:N:vis=0	!LO:N:vis=00	!	!
4C#X/	.	2.r	1.r	8ee#X\L	.
.	#	.	.	8ff#\	.
8C#/	.	.	.	8ee#X\J	.
=148	=148	=148	=148	=148	=148
4.F#\	.	.	.	8ff#\	.
.	.	.	.	8f#,</	-mo
.	.	.	.	8r	.
=149	=149	=149	=149	=149	=149
!LO:TX:a:t=14	!	!	!	!	!
!LO:N:vis=00	!	!	!	!	!
1.r	.	8r	.	8f#/	cor
.	.	16dd\LL	.	8ff#\	me-
.	.	16b\	.	.	.
!	!	!LO:SIC:v:s=8cc#\	!	!	!
.	.	16cc\	.	16ff#\LL	-um
.	.	16dd\JJ	.	16gg\JJ	.
=150	=150	=150	=150	=150	=150
.	.	8dd\L	.	8ff#\	pro-
!	!	!LO:TX:t=P:problem:# above	!	!	!
.	.	8cc#X\J	.	8ee\	-no
.	.	8r	.	8r	.
=151	=151	=151	=151	=151	=151
!	!	!	!LO:N:vis=00	!	!
.	.	8r	1.r	8f#/	af-
!	!	!LO:SIC:v:s=8cc#\L	!	!	!
.	.	8cc\L	.	8ee\	-fe-
!	!	!LO:TX:t=P:problem:# above	!	!	!
.	.	16cc#X\L	.	16dd\LL	-ctum
.	.	16dd\JJ	.	16ff#\JJ	.
!	!	!	!	!LO:LB:g=original	!
=152	=152	=152	=152	=152	=152
!	!	!LO:SIC:v:s=8cc#\	!	!	!
.	.	8cc\L	.	8ee\	po-
!	!	!LO:TX:t=P:problem:# above	!	!	!
!	!	!LO:SIC:v:s=8b\J	!	!	!
.	.	8b#\J	.	8dd\	-no
.	.	8r	.	8r	.
=153	=153	=153	=153	=153	=153
!LO:N:vis=00	!	!	!	!	!
1.r	.	8r	.	8f#/	Je-
.	.	8b\L	.	8dd\	-s(um)
.	.	16b\L	.	16dd\LL	q(ue)
!	!	!LO:TX:t=P:problem:# above	!	!	!
.	.	16cc#X\JJ	.	16ee\JJ	.
=154	=154	=154	=154	=154	=154
.	.	8b\L	.	8dd\	do-
!	!	!LO:SIC:v:s=8a#	!	!	!
.	.	8a\J	.	8cc#X\	-no
.	.	8r	.	8r	.
=155	=155	=155	=155	=155	=155
!	!	!	!LO:N:vis=00	!	!
.	.	4f#/	1.r	8f#/	Do-
.	.	.	.	8a#X\	-num
.	.	8e/	.	8cc#X\	mi
=156	=156	=156	=156	=156	=156
.	.	8d/L	.	8f#/	Je-
.	.	8c/	.	8b\	-su
.	.	8B/J	.	8dd\	ne-
=157	=157	=157	=157	=157	=157
!LO:N:vis=00	!	!	!	!LO:SIC:v:s=16cc#\LL	!
1.r	.	8e/	.	16cc\LL	-des-
.	.	.	.	16b\JJ	.
.	.	4f#/	.	8.a#X\	-pi-
.	.	.	.	16a#\	-ci-
=158	=158	=158	=158	=158	=158
.	.	4.B/	.	4.b\	-as
=159	=159	=159	=159	=159	=159
!	!	!	!LO:N:vis=00	!	!
.	.	4f#/	1.r	8f#/	be-
.	.	.	.	8a#X\	-ni-
.	.	8e/	.	8cc#X\	-gno
!	!	!LO:LB:g=original	!	!	!
=160	=160	=160	=160	=160	=160
.	.	8d/L	.	8f#/	vul-
.	.	8c/	.	8b\	-tu-
.	.	8B/J	.	8dd\	-id
=161	=161	=161	=161	=161	=161
!LO:N:vis=0	!	!	!	!	!
2.r	.	4e/	.	16cc#X\LL	re-
.	.	.	.	16b\JJ	.
.	.	.	.	8.a#X\	-ſpi-
.	.	8f#/	.	.	.
.	.	.	.	16a#\	-ci-
=162	=162	=162	=162	=162	=162
.	.	4.B/	.	4.b\	-as
!LO:LB:g=original	!	!	!	!	!
=163	=163	=163	=163	=163	=163
!LO:TX:b:t=VV	!	!	!LO:TX:t=P:problem:mixed beam	!LO:N:visw=00	!
8D/L	.	8r	8f#/L	1.r	.
!	!	!LO:TX:b:t=VV	!	!	!
8D/	.	8dd\L	16ff#\L	.	.
.	.	.	16ee\J	.	.
8D/J	.	16dd\L	8ff#\J	.	.
.	.	16ee\JJ	.	.	.
!	!	!	!LO:LB:g=original	!	!
=164	=164	=164	=164	=164	=164
!	!	!LO:TX:b:t=regete	!	!	!
8D/L	.	8dd\L	8ff#\L	.	.
!LO:SIC:v:s=8AA/J	!	!LO:TX:t=P:problem:# above	!	!	!
8BB/J	#	8cc#X\J	8ee\J	.	.
8r	.	8r	8r	.	.
=165	=165	=165	=165	=165	=165
!	!	!	!LO:TX:t=P:problem:mixed beam	!	!
8AA/L	.	8r	8f#/L	.	.
!	!	!LO:SIC:v:s=8cc#\L	!	!	!
8r	.	8cc\L	16ee\L	.	.
.	.	.	16dd\J	.	.
!	!	!LO:TX:t=P:problem:# above	!	!	!
8AA/J	.	16cc#X\L	8ee\J	.	.
.	.	16dd\JJ	.	.	.
=166	=166	=166	=166	=166	=166
8AA/L	.	8cc#X\L	8ee\L	.	.
8BB/J	3	8b\J	8dd\J	.	.
8r	.	8r	8r	.	.
=167	=167	=167	=167	=167	=167
!	!	!	!LO:TX:t=P:problem:mixed beam	!LO:N:visw=00	!
8BB/L	.	8r	8f#/L	1.r	.
8BB/J	.	8b\L	16dd\L	.	.
!	!	!	!LO:SIC:v:s=16cc#\J	!	!
.	.	.	16cc\J	.	.
8r	.	16b\L	8dd\J	.	.
!	!	!LO:TX:t=P:problem:# above	!	!	!
.	.	16cc#X\JJ	.	.	.
=168	=168	=168	=168	=168	=168
8BB/	.	8b/L	8dd\L	.	.
8F#\	#	8a#X/J	8cc#X\J	.	.
8r	.	8r	8r	.	.
=169	=169	=169	=169	=169	=169
4F#\	#	4f#/	8f#\L	.	.
.	.	.	8a#X\	.	.
8r	.	8e/	8cc#X\J	.	.
=170	=170	=170	=170	=170	=170
4BB/	.	8d/L	8f#\L	.	.
!	!	!LO:TX:b:t=P:problem:# below	!	!	!
.	.	8c#X/	8b\	.	.
8r	.	8B/J	8dd\J	.	.
=171	=171	=171	=171	=171	=171
!	!	!	!	!LO:N:visw=00	!
8E\	6	8e/	16cc#X\LL	1.r	.
.	5	.	16b\JJ	.	.
4F#\	4	4f#/	4a#X/	.	.
.	3	.	.	.	.
=172	=172	=172	=172	=172	=172
4.BB/	.	4.B/	4.b/	.	.
=173	=173	=173	=173	=173	=173
4F#\	#	4f#/	8f#\L	.	.
.	.	.	8a#X\	.	.
8r	.	8e/	8cc#X\J	.	.
=174	=174	=174	=174	=174	=174
4BB/	.	8d/L	8f#/L	.	.
!	!	!LO:TX:b:t=P:problem:# below	!	!	!
.	.	8c#X/	8b\	.	.
8r	.	8B/J	8dd\J	.	.
=175	=175	=175	=175	=175	=175
!	!	!	!	!LO:N:visw=0	!
4E\	.	4e/	16cc#X\LL	2.r	.
.	.	.	16b\JJ	.	.
.	.	.	4a#X/	.	.
8F#\	4	8f#/	.	.	.
.	3	.	.	.	.
=176	=176	=176	=176	=176	=176
!LO:TX:a:t=P:problem:pojedyncza kreska taktowa	!	!	!	!LO:TX:a:t=P:problem:pojedyncza kreska taktowa	!
4.BB/	.	4.B/	4.b/	.	.
!	!	!	!	!LO:LB:g=original	!
=177||	=177||	=177||	=177||	=177||	=177||
!	!	!LO:TX:t=P:problem:tt. 177-190 zapisane repetycją	!LO:TX:t=P:problem:tt. 177-190 zapisane repetycją	!	!
!	!	!	!	!LO:TX:t=P:problem:mixed beam	!
4D/	.	8ryy	8f#/Lyy	8f#/	cor
!	!	!LO:TX:b:t=VV	!	!	!
.	.	8dd\Lyy	16ff#\Lyy	8ee\	me-
.	.	.	16ee\Jyy	.	.
8r	.	16dd\Lyy	8ff#\Jyy	16ff#\LL	-u(m)
.	.	16ee\JJyy	.	16gg\JJ	.
!	!	!	!LO:LB:g=original	!	!
=178	=178	=178	=178	=178	=178
!	!	!LO:TX:b:t=regete	!	!	!
8D/L	.	8dd\Lyy	8ff#\Lyy	8ff#\	pro-
!	!	!LO:TX:t=P:problem:# above	!	!	!
8AA/J	#	8cc#X\Jyy	8ee\Jyy	8ee\	-no
8r	.	8ryy	8ryy	8r	.
!LO:LB:g=original	!	!	!	!	!
=179	=179	=179	=179	=179	=179
!	!	!	!LO:TX:t=P:problem:mixed beam	!	!
4AA/	.	8ryy	8f#/Lyy	8f#/	Af-
!	!	!LO:SIC:v:s=8cc#\L	!	!	!
.	.	8cc\Lyy	16ee\Lyy	8ee\	-fe-
.	.	.	16dd\Jyy	.	.
!	!	!LO:TX:t=P:problem:# above	!	!	!
8r	.	16cc#X\Lyy	8ee\Jyy	16ee\LL	-ctu(m)
.	.	16dd\JJyy	.	16ff#\JJ	.
=180	=180	=180	=180	=180	=180
8AA/L	.	8cc#X\Lyy	8ee\Lyy	8ee\	po-
8BB/J	.	8b\Jyy	8dd\Jyy	8dd\	-no
8r	.	8ryy	8ryy	8r	.
=181	=181	=181	=181	=181	=181
!	!	!	!LO:TX:t=P:problem:mixed beam	!	!
4BB/	.	8ryy	8f#/Lyy	8f#/	Je-
.	.	8b\Lyy	16dd\Lyy	8dd\	-ſum
!	!	!	!LO:SIC:v:s=16cc#\J	!	!
.	.	.	16cc\Jyy	.	.
8r	.	16b\Lyy	8dd\Jyy	16dd\LL	q(ue)
!	!	!LO:TX:t=P:problem:# above	!	!	!
.	.	16cc#X\JJyy	.	16ee\JJ	.
=182	=182	=182	=182	=182	=182
8BB/	.	8b/Lyy	8dd\Lyy	8dd\	do-
8F#\	#	8a#X/Jyy	8cc#X\Jyy	8cc#X\	-no
8r	.	8ryy	8ryy	8r	.
=183	=183	=183	=183	=183	=183
4F#\	#	4f#/yy	8f#\Lyy	8f#/	cor
.	.	.	8a#X\yy	8a#X\	me-
8r	.	8e/yy	8cc#X\Jyy	8cc#X\	-u(m)
=184	=184	=184	=184	=184	=184
4BB/	.	8d/Lyy	8f#/Lyy	8f#/	Je-
!	!	!LO:TX:b:t=P:problem:# below	!	!	!
.	.	8c#X/yy	8b\yy	8b\	-ſu
8r	.	8B/Jyy	8dd\Jyy	8dd\	mi
=185	=185	=185	=185	=185	=185
!	!	!	!	!LO:SIC:v:s=16cc#X\LL	!
8E\	.	8e/yy	16cc#X\LLyy	16dd#X\LL	ne-
!	!	!	!	!LO:SIC:v:s=16bb\JJ	!
.	.	.	16b\JJyy	16cc\JJ	-de-
!	!	!	!	!LO:SIC:v:s=4a#\	!
4F#\	4	4f#/yy	4a#X/yy	8a\	-ſpi-
.	3	.	.	8a\	-ci-
=186	=186	=186	=186	=186	=186
4.BB/	.	4.B/yy	4.b/yy	4.b\	-as
!	!	!	!	!LO:LB:g=original	!
=187	=187	=187	=187	=187	=187
8F#\L	#	4f#/yy	8f#\Lyy	8f#X/	be-
8F#\J	.	.	8a#X\yy	8a#X\	-ni-
8r	.	8e/yy	8cc#X\Jyy	8cc#X\	-gno
=188	=188	=188	=188	=188	=188
!	!	!	!	!LO:SIC:v:s=8f#/	!
8BB/L	.	8d/Lyy	8f#/Lyy	8e/	vul-
!	!	!LO:TX:b:t=P:problem:# below	!	!LO:SIC:v:s=8b\	!
8BB/J	.	8c#X/yy	8b\yy	8b\	-tu-
!	!	!	!	!LO:SIC:v:s=8dd\	!
8r	.	8B/Jyy	8dd\Jyy	8cc\	-id
=189	=189	=189	=189	=189	=189
8E\	6\	4e/yy	16cc#X\LLyy	16cc#X\LL	re-
.	5	.	16b\JJyy	16b\JJ	.
4F#\	7 4	.	4a#X/yy	8.a#X\	-ci-
.	.	8f#/yy	.	.	.
.	x 3	.	.	16a#\	-pi-
=190	=190	=190	=190	=190	=190
!LO:TX:a:t=P:problem:pojedyncza kreska taktowa	!	!LO:TX:b:t=Da Capo \nad Signum \nFinis	!	!LO:TX:b:t=Da Capo us q(ue) ad \nSignum Finis	!
4.BB/	.	4.B/yy	4.b/yy	4.b\	-as
=191||	=191||	=191||	=191||	=191||	=191||
!LO:N:vis=00	!	!LO:TX:t=P:problem:brak taktów 191-204	!LO:N:vis=00	!LO:TX:t=P:problem:brak taktów 191-204	!
1.r	.	4.ryy	1.r	4.ryy	.
=192	=192	=192	=192	=192	=192
.	.	4.ryy	.	4.ryy	.
=193	=193	=193	=193	=193	=193
.	.	4.ryy	.	4.ryy	.
=194	=194	=194	=194	=194	=194
.	.	4.ryy	.	4.ryy	.
=195	=195	=195	=195	=195	=195
!LO:N:vis=00	!	!	!LO:N:vis=00	!	!
1.r	.	4.ryy	1.r	4.ryy	.
=196	=196	=196	=196	=196	=196
.	.	4.ryy	.	4.ryy	.
=197	=197	=197	=197	=197	=197
.	.	4.ryy	.	4.ryy	.
=198	=198	=198	=198	=198	=198
.	.	4.ryy	.	4.ryy	.
=199	=199	=199	=199	=199	=199
!LO:N:vis=0	!	!	!LO:N:vis=00	!	!
2.r	.	4.ryy	1.r	4.ryy	.
=200	=200	=200	=200	=200	=200
.	.	4.ryy	.	4.ryy	.
=201	=201	=201	=201	=201	=201
4.F#\	#	4.ryy	.	4.ryy	.
=202	=202	=202	=202	=202	=202
4BB/	.	4.ryy	.	4.ryy	.
8BB/	.	.	.	.	.
=203	=203	=203	=203	=203	=203
!	!	!	!LO:N:vis=0	!	!
8E\	.	4.ryy	2.r	4.ryy	.
4F#\	4	.	.	.	.
.	3	.	.	.	.
=204	=204	=204	=204	=204	=204
!LO:TX:b:t=Da Capo \nuſ q(ue) \nad Sign F	!	!	!	!	!
4.BB/	.	4.ryy	.	4.ryy	.
==	==	==	==	==	==
*-	*-	*-	*-	*-	*-
!!!system-decoration: s1{g1}s4
!!!RDF**kern: > = above
!!!RDF**kern: < = below
!!!AIN: 1 organ 2 violn 1 vox
!!!ENC: Marta Lawrence
!!!END: 2021-07-15
!!!ENC: Anastazja Marusiak
!!!END: 2020-06-14
